X: 1
T:Steam Train to Mallaig - MELODY ( Piper 1 then Piper 2 )  "CYMRU"
M:6/8
L:1/8
Q:80
C:Mary-Ann MacKinnon
S:
K:HP
| {g}A3/2{d}c/2e{gf}g3/2{a}f/2d|
{g}e/2c3/2{g}c{GdG}c3/2{g}c/2B|
{g}A3/2{d}c/2e{gf}g3/2{a}f/2d|  !
{gef}e3{A}e2{g}c/2B/2| |
{g}A3/2{d}c/2e{gf}g3/2{a}f/2d|
{g}e/2c3/2{g}c{GdG}c3|  !
{g}de3/2d/2{g}G/2{d}A3/2{d}B3/2|] |
---|
M:C| |
{gef}e{A}e/2d/2{g}d/2c/2{g}A|  !
{g}d/2c/2{G}c/2d/2{g}G/2{d}G/2{e}G/2{d}A/2|
{gef}e{A}e/2d/2{g}d/2c/2{g}A|
{g}d/2c/2{G}c/2d/2{g}G/2{d}G/2{e}G/2{d}A/2| |  !
{gef}e{A}e/2d/2{g}d/2c/2{g}A|
{g}d/2c/2{G}c/2d/2{g}G/2{d}G/2{e}G/2{d}A/2|
{gef}e{A}e/2d/2{g}d/2c/2{g}A|  !
{g}d/2c/2{G}c/2d/2{g}G/2{d}G/2{e}G/2{d}A/2|] |:
{g}G/2g/2{f}g/2G/2g/2{f}g/2G/2g/2|
A/2f/2{e}f/2A/2f/2{e}f/2A/2f/2|  !
{g}A/2e/2{A}e/2A/2{g}f/2A/2{g}e/2A/2|
{g}A/2e/2{A}e/2A/2{g}f/2A/2{g}e/2A/2:| |:
{g}A/2B/2c/2d/2{g}e/2f/2g/2e/2|  !
a/2e/2{A}e/2a/2c/2a/2A|
{g}A/2B/2c/2d/2{g}e/2f/2g/2e/2|
a/2e/2{A}e/2a/2c/2a/2A| |  !
{g}d/2A/2{g}d/2f/2a/2f/2{g}d/2f/2|
{g}A/2d/2{g}f/2A/2{g}d/2f/2{g}A/2d/2|
{g}A/2B/2c/2d/2{g}e/2f/2g/2e/2|  !
a/2e/2{A}e/2a/2c/2a/2A:| |
{g}e/2g/2{f}g/2e/2{g}e/2g/2{f}g/2d/2|
{g}d/2f/2{e}f/2d/2{g}d/2f/2{e}f/2c/2|  !
{g}c/2e/2{A}e/2c/2{g}f/2c/2{g}e/2c/2|
{g}c/2e/2{A}e/2c/2{g}f/2c/2{g}e/2A/2| |
{g}G/2g/2{f}g/2G/2g/2{f}g/2G/2g/2|  !
A/2f/2{e}f/2A/2f/2{e}f/2A/2f/2|
{g}A/2e/2{A}e/2A/2{g}f/2A/2{g}e/2A/2|
{g}A/2e/2{A}e/2A/2{g}f/2A/2{g}e/2A/2:| |  !
{g}A{d}c-ce|
{gf}g{a}f-fd|
{g}ec-c2|  !
-c2-cB| |
{g}A{d}c-ce|
{gf}g{a}f-fd|  !
{gef}e2-e2|
-e2-e{g}c/2B/2| |
{g}A{d}c-ce|  !
{gf}g{a}f-fd|
{g}ec-c2|
-c2-c2| |  !
{g}de-ed|
{g}G{d}A-AB|
{g}A2-A2|  !
-A2-A2|] |
e/2{g}e/2{A}e/2{g}d/2-d/2{G}d/2c|
{g}B/2A/2B/2{GdG}c/2-c2|  !
g/2{g}g/2{f}g/2{a}f/2-f/2e/2d|
{g}ec-c2| |
a/2{g}a/2{g}a/2{cd}c/2-c/2B/2{g}A|  !
{g}B/2c/2d/2{gcd}c/2-c2|
{g}G/2A/2B-B2|
{g}B/2c/2d-d2| |  !
{g}c2-c2|
B2-B2|
{gef}e{A}e/2d/2{g}d/2c/2{g}A|  !
{g}d/2c/2{G}c/2d/2{g}G/2{d}G/2{e}G/2{d}A/2| |
{gef}e{A}e/2d/2{g}d/2c/2{g}A|
{Gdc}d2-d2|  !
-d/2{g}G/2{d}G/2{e}G/2{g}A2|
-A2-A2|]
